build/category/ForksOutline.svg

<svg xmlns="http://www.w3.org/2000/svg" fill="none" viewBox="0 0 24 24" focusable="false"><path d="M0 0H24V24H0z"/><path fill="#74767B" d="M18.0457 2.90544C17.7858 2.65776 17.3744 2.66763 17.1267 2.92749C16.879 3.18735 16.8889 3.59879 17.1487 3.84647L18.7303 5.35388L12.6721 5.35388C10.6563 5.35388 9.02211 6.98804 9.02211 9.00388L9.02211 11.3572L3.64414 11.3572C3.28516 11.3572 2.99414 11.6482 2.99414 12.0072C2.99414 12.3662 3.28516 12.6572 3.64414 12.6572L9.02211 12.6572L9.02211 15.0105C9.02211 17.0263 10.6563 18.6605 12.6721 18.6605L18.6969 18.6605L17.1481 20.1098C16.886 20.3551 16.8724 20.7664 17.1176 21.0285C17.3629 21.2907 17.7743 21.3043 18.0364 21.059L20.7864 18.4856C20.7979 18.4752 20.8091 18.4642 20.82 18.4528L20.8233 18.4492C20.828 18.4443 20.8326 18.4392 20.837 18.4342C20.8525 18.4167 20.8669 18.3985 20.8801 18.3798C21.0639 18.1208 21.0346 17.7594 20.7979 17.5338L18.0408 14.9059C17.7809 14.6582 17.3695 14.6681 17.1218 14.9279C16.8741 15.1878 16.884 15.5992 17.1439 15.8469L18.7318 17.3605L12.6721 17.3605C11.3742 17.3605 10.3221 16.3083 10.3221 15.0105L10.3221 12.0288C10.3223 12.0216 10.3225 12.0144 10.3225 12.0072C10.3225 12 10.3223 11.9928 10.3221 11.9856L10.3221 9.00388C10.3221 7.70601 11.3742 6.65388 12.6721 6.65388L18.7084 6.65388L17.153 8.10935C16.8909 8.35464 16.8772 8.76597 17.1225 9.02809C17.3678 9.29021 17.7791 9.30385 18.0413 9.05857L20.7913 6.48514C20.8028 6.47469 20.814 6.46376 20.8249 6.45235C21.0725 6.19249 21.0627 5.78105 20.8028 5.53337L18.0457 2.90544Z"/></svg>

<svg xmlns="http://www.w3.org/2000/svg" fill="none" viewBox="0 0 24 24" focusable="false"><path fill="#74767B" d="M18.04 2.9a.65.65 0 0 0-.92.02c-.25.26-.24.67.02.92l1.59 1.51h-6.06c-2.02 0-3.65 1.63-3.65 3.65v2.35H3.64c-.36 0-.65.29-.65.65s.29.65.65.65h5.38v2.36c0 2.01 1.63 3.65 3.65 3.65h6.02l-1.55 1.44c-.26.25-.27.66-.03.92.25.27.66.28.92.03l2.75-2.57c.01-.01.02-.02.04-.03v-.01l.01-.01c.02-.02.03-.04.05-.06.18-.25.15-.62-.09-.84l-2.75-2.63a.65.65 0 0 0-.92.02c-.25.26-.24.67.02.92l1.59 1.52h-6.06c-1.3 0-2.35-1.06-2.35-2.35V9c0-1.3 1.05-2.35 2.35-2.35h6.03L17.15 8.1a.65.65 0 0 0-.03.92c.24.27.65.28.92.03l2.75-2.57.03-.03c.25-.26.24-.67-.02-.92z"/></svg>
